X:933
T:Waiting for Peter
R:Waltz
C:Lee Anne Welch
O:USA
S:Lee Anne Welch
Z:Transcription, chords:Mike Long
M:3/4
L:1/4
K:F
A|\
"Dm"d>ef|f>ed|"A"e^cA|A2G|"G"G>AB|B>dB|"Dm"A3-|A2A|\
"G"G>AB|B>dB|"Dm"AFD|A3|"A"A,>^G,A,|F>A,E|
[1 "Dm"D3-|D2:|[2 "Dm"D3|D/E/ F/G/ A\
|:"G"B/D/ B>D|B/D/ B>D|"Dm"A/G/ FG|A3|"A"G/F/ E/D/ ^C/=B,/|\
A,/B,/ ^C/A,/ B,/C/|
"Dm"D/E/ F/G/ A/D/|A>D F/A/|"Bb"B/D/ B>D|B/D/ B>D|"Dm"A/G/ FG|A3|\
"A"A,>^G,A,|F>A,E|[1 "Dm"D3|D/E/ F/G/ A/D/:|[2 "Dm"D3-|D2|]
